optimized/24/outline/signature.svg

<svg viewBox="0 0 24 24" xmlns="http://www.w3.org/2000/svg" fill="currentColor" data-slot="icon">
  <g clip-path="url(#clip0_2208_12310)">
    <path d="M14.429 2.50624C13.7746 1.85182 12.5773 1.76119 11.9383 2.65645C10.0583 5.29052 10.2995 8.97212 12.6637 11.3363C15.0279 13.7005 18.7095 13.9417 21.3436 12.0617C22.2388 11.4227 22.1482 10.2254 21.4938 9.57096L14.429 2.50624ZM13.3695 3.56579L20.4342 10.6305C20.4857 10.682 20.503 10.7417 20.5019 10.7827C20.5014 10.8019 20.4971 10.8137 20.4939 10.8199C20.4915 10.8247 20.4868 10.8322 20.4731 10.842C18.4252 12.3037 15.5611 12.1147 13.7232 10.2768C11.8853 8.43888 11.6963 5.57483 13.158 3.52695C13.1678 3.51317 13.1753 3.50851 13.1801 3.50605C13.1863 3.5029 13.1981 3.49863 13.2173 3.49812C13.2583 3.49704 13.318 3.51432 13.3695 3.56579Z"/>
    <path d="M9.25038 8.66974C9.6307 8.50674 9.80688 8.0663 9.64389 7.68597C9.48089 7.30565 9.04045 7.12947 8.66012 7.29247L4.76889 8.96014C3.87189 9.34457 3.24618 10.176 3.12513 11.1444L2.01385 20.0347C1.87245 21.1658 2.83415 22.1276 3.96535 21.9862L12.8556 20.8749C13.824 20.7538 14.6554 20.1281 15.0399 19.2311L16.7075 15.3399C16.8705 14.9596 16.6943 14.5191 16.314 14.3561C15.9337 14.1931 15.4933 14.3693 15.3303 14.7496L13.6626 18.6409C13.4879 19.0486 13.1099 19.333 12.6697 19.388L4.67184 20.3878L9.04572 16.0139C9.88119 16.413 10.9122 16.2665 11.6042 15.5745C12.4819 14.6968 12.4819 13.2737 11.6042 12.3959C10.7264 11.5181 9.30328 11.5181 8.42552 12.3959C7.73352 13.0879 7.58707 14.1189 7.98618 14.9543L3.61224 19.3283L4.61199 11.3303C4.66701 10.8901 4.95142 10.5121 5.35915 10.3374L9.25038 8.66974ZM10.5446 13.4554C10.8372 13.748 10.8372 14.2224 10.5446 14.515C10.252 14.8076 9.77765 14.8076 9.48507 14.515C9.19248 14.2224 9.19248 13.748 9.48507 13.4554C9.77765 13.1629 10.252 13.1629 10.5446 13.4554Z"/>
  </g>
  <defs>
    <clipPath id="clip0_2208_12310">
      <rect width="24" height="24"/>
    </clipPath>
  </defs>
</svg>

<svg xmlns="http://www.w3.org/2000/svg" viewBox="0 0 24 24" fill="currentColor" data-slot="icon">
  <g clip-path="url(#a)">
    <path d="M14.429 2.506c-.654-.654-1.852-.745-2.49.15a6.745 6.745 0 0 0 9.405 9.406c.895-.64.804-1.837.15-2.491l-7.065-7.065Zm-1.06 1.06 7.065 7.064a.216.216 0 0 1 .068.153c0 .019-.005.03-.008.037a.06.06 0 0 1-.02.022 5.246 5.246 0 0 1-7.316-7.315.06.06 0 0 1 .022-.021.087.087 0 0 1 .037-.008c.041-.001.101.016.152.068Z"/>
    <path d="M9.25 8.67a.75.75 0 0 0-.59-1.378L4.77 8.96a2.747 2.747 0 0 0-1.644 2.184l-1.111 8.89a1.748 1.748 0 0 0 1.951 1.952l8.89-1.111a2.747 2.747 0 0 0 2.185-1.644l1.668-3.891a.75.75 0 0 0-1.378-.59l-1.667 3.89a1.249 1.249 0 0 1-.993.748l-7.998 1 4.374-4.374a2.249 2.249 0 1 0-1.06-1.06l-4.374 4.374 1-7.998c.055-.44.34-.818.747-.993L9.25 8.67Zm1.295 4.785a.75.75 0 1 1-1.06 1.06.75.75 0 0 1 1.06-1.06Z"/>
  </g>
  <defs>
    <clipPath id="a">
      <rect width="24" height="24"/>
    </clipPath>
  </defs>
</svg>
